build/img/icon-feature_sale.svg

<svg width="13" height="13" viewBox="0 0 13 13" xmlns="http://www.w3.org/2000/svg">
<path d="M2.50362 5.0073C1.12323 5.0073 0 3.88405 0 2.50368C0 1.12326 1.12323 0 2.50362 0C3.88401 0 5.00724 1.12326 5.00724 2.50368C5.00724 3.88405 3.88401 5.0073 2.50362 5.0073ZM2.50362 1.18092C1.77422 1.18092 1.18089 1.77425 1.18089 2.50368C1.18089 3.23305 1.77422 3.82639 2.50362 3.82639C3.23302 3.82639 3.82635 3.23305 3.82635 2.50368C3.82635 1.77425 3.23302 1.18092 2.50362 1.18092Z"/>
<path d="M10.1544 12.6579C8.77403 12.6579 7.65137 11.5346 7.65137 10.1542C7.65137 8.77443 8.77403 7.65173 10.1544 7.65173C11.5354 7.65173 12.6592 8.77443 12.6592 10.1542C12.6592 11.5346 11.5354 12.6579 10.1544 12.6579ZM10.1544 8.83265C9.42562 8.83265 8.83229 9.42541 8.83229 10.1542C8.83229 10.8837 9.42562 11.477 10.1544 11.477C10.8844 11.477 11.4783 10.8837 11.4783 10.1542C11.4783 9.42541 10.8844 8.83265 10.1544 8.83265Z"/>
<path d="M0.590428 12.6588C0.439351 12.6588 0.288304 12.6012 0.172982 12.4858C-0.0576607 12.2552 -0.0576607 11.8816 0.172982 11.6509L11.6515 0.172982C11.8821 -0.0576607 12.2558 -0.0576607 12.4864 0.172982C12.7171 0.403625 12.7171 0.777295 12.4864 1.00794L1.00791 12.4858C0.892587 12.6012 0.741505 12.6588 0.590428 12.6588Z"/>
</svg>

<svg width="13" height="13" xmlns="http://www.w3.org/2000/svg"><path d="M2.504 5.007A2.507 2.507 0 010 2.504 2.507 2.507 0 012.504 0a2.507 2.507 0 012.503 2.504 2.507 2.507 0 01-2.503 2.503zm0-3.826a1.324 1.324 0 101.322 1.323c0-.73-.593-1.323-1.322-1.323zm7.65 11.477a2.506 2.506 0 01-2.503-2.504 2.506 2.506 0 012.503-2.502 2.507 2.507 0 012.505 2.502 2.507 2.507 0 01-2.505 2.504zm0-3.825a1.323 1.323 0 000 2.644c.73 0 1.324-.593 1.324-1.323 0-.729-.594-1.321-1.324-1.321zM.59 12.659a.59.59 0 01-.417-1.008L11.652.173a.59.59 0 11.834.835L1.008 12.486a.588.588 0 01-.418.173z"/></svg>
